!!!COA:	Josquin des Prez
!!!CDT:	~1450-1521/08/27
!!!COM2: La Rue, Pierre de
!!!CDT2: ~1452///-1518/11/20/
!!!OTL@@FRE: Incessament mon povre
!!!AGN:	Song; Chanson
!!!SCT:	NJE 29.9
!!!SCA:	New Josquin Edition 29.9
!!!voices:	5
**kern	**kern	**kern	**kern	**kern
*staff5	*staff4	*staff3	*staff2	*staff1
*Ivox	*Ivox	*Ivox	*Ivox	*Ivox
*I"Bassus	*I"Tenor	*I"Quintus	*I"Contratenor	*I"Superius
*I'B	*I'T	*I'Q	*I'Ct	*I'S
*clefF4	*clefF4	*clefGv2	*clefGv2	*clefG2
*k[]	*k[]	*k[]	*k[]	*k[]
*M2/1	*M2/1	*M2/1	*M2/1	*M2/1
*met(C2)	*met(C2)	*met(C2)	*met(C2)	*met(C2)
=1-	=1-	=1-	=1-	=1-
0r	2.G\	0r	0r	0g
.	4A\	.	.	.
.	2B\	.	.	.
.	2c\	.	.	.
=2.	=2.	=2.	=2.	=2.
0r	2G\	0r	0r	2.e/
.	2.c\	.	.	.
.	.	.	.	4f/
.	.	.	.	2d/
.	4B\	.	.	.
.	2B\	.	.	2d/
=3	=3	=3	=3	=3
0r	0c	0r	0g	2c/
.	.	.	.	2.e/
.	.	.	.	4f/
.	.	.	.	4g/
.	.	.	.	4a/
=4.	=4.	=4.	=4.	=4.
0r	0r	0r	2.e\	2b\
.	.	.	.	1cc
.	.	.	4f\	.
.	.	.	2d\	.
.	.	.	2d\	2b\
=5	=5	=5	=5	=5
0r	0A	0r	2.c\	1cc
.	.	.	4d\	.
.	.	.	4e\	2cc\
.	.	.	4f\	.
.	.	.	[2e\	[2a/
=6.	=6.	=6.	=6.	=6.
0r	2.F\	0r	4e\]	2a/]
.	.	.	4d\	.
.	.	.	1d	4g/
.	4G\	.	.	4f/
.	1E	.	.	1g
.	.	.	2c#i\	.
=7	=7	=7	=7	=7
0D	2D\	0r	0d	2f/
.	4F\	.	.	1a
.	4G\	.	.	.
.	4A\	.	.	.
.	4B-i\	.	.	.
.	[2A\	.	.	[2dd\
=8.	=8.	=8.	=8.	=8.
2.BB/	4A\]	0r	0r	2dd\]
.	4G\	.	.	.
.	1G	.	.	4cc\
4C/	.	.	.	4b\
2AA/	.	.	.	1cc
2AA/	2F#i\	.	.	.
=9	=9	=9	=9	=9
2GG/	0G	0G	1d	1b
2GG/	.	.	.	.
2C/	.	.	2G/	1r
2BB/	.	.	[2B\	.
=10.	=10.	=10.	=10.	=10.
2C/	0r	2.E/	4B\]	0r
.	.	.	4A/	.
2AA/	.	.	1A	.
.	.	4F/	.	.
1BB	.	2D/	.	.
.	.	2D/	2G#i/	.
=11	=11	=11	=11	=11
[0AA	0r	2C/	2A/	0r
.	.	2C/	2e\	.
.	.	2F/	2c\	.
.	.	2E/	[2e\	.
=12.	=12.	=12.	=12.	=12.
0AA]	1A	2F/	4e\]	0r
.	.	.	4d\	.
.	.	2D/	1d	.
.	2A\	1E	.	.
.	2A\	.	2c#i\	.
=13	=13	=13	=13	=13
0r	2.F\	[0D	[0d	1a
.	4E\	.	.	.
.	2D\	.	.	2a/
.	2A\	.	.	2a/
=14.	=14.	=14.	=14.	=14.
0A	2A\	0D]	0d]	2.f/
.	2F\	.	.	.
.	.	.	.	4e/
.	4F\	.	.	2d/
.	4G\	.	.	.
.	4A\	.	.	[2a/
.	4B\	.	.	.
=15	=15	=15	=15	=15
2.F\	2c\	0r	0r	2a/]
.	1d	.	.	4g/
4G\	.	.	.	4f/
2E\	.	.	.	1g
2E\	2c#i\	.	.	.
=16.	=16.	=16.	=16.	=16.
2D\	[0d	0d	0r	2f/
2D\	.	.	.	2a/
2G\	.	.	.	2b-i\
2F\	.	.	.	[2a/
=17	=17	=17	=17	=17
2G\	0d]	2.B\	0r	2a/]
2G\	.	.	.	1g
.	.	4c\	.	.
1D	.	2A/	.	.
.	.	2A/	.	2f#i/
=18.	=18.	=18.	=18.	=18.
1GG	0r	2G/	2.g\	2g/
.	.	2G/	.	2b\
.	.	.	4f\	.
1r	.	2c\	2e\	2cc\
.	.	2B\	2d\	[2dd\
=19	=19	=19	=19	=19
0r	1r	2c\	2.e\	2dd\]
.	.	2c\	.	2.cc\
.	.	.	4c\	.
.	2r	1G	1d	.
.	.	.	.	4b\
.	2d\	.	.	2b\
=20.	=20.	=20.	=20.	=20.
0r	2e\	1C	1c	0cc
.	2e\	.	.	.
.	1c	1r	2r	.
.	.	.	2e\	.
=21	=21	=21	=21	=21
0r	2r	0r	2f\	0r
.	2A\	.	2f\	.
.	2B\	.	2d\	.
.	2B\	.	[2g\	.
=22.	=22.	=22.	=22.	=22.
1r	2G\	0r	2g\]	0r
.	1c	.	4f\	.
.	.	.	4e\	.
2r	.	.	1d	.
2G\	2B\	.	.	.
=23	=23	=23	=23	=23
2A\	4c\	0r	1c	0r
.	4B\	.	.	.
2A\	4A\	.	.	.
.	4G\	.	.	.
1F	1A	.	2r	.
.	.	.	2d\	.
=24.	=24.	=24.	=24.	=24.
2r	1G	1r	2e\	2r
2E\	.	.	2e\	2g/
2F\	1r	2r	2c\	2a/
2F\	.	2c\	[2f\	2a/
=25	=25	=25	=25	=25
1D	0r	2d\	2f\]	1f
.	.	2d\	4e\	.
.	.	.	4d\	.
2G\	.	1B	1e	2r
[2G\	.	.	.	2g/
=26.	=26.	=26.	=26.	=26.
2G\]	0r	2r	0d	2a/
2F\	.	2A/	.	2a/
2.G\	.	2B\	.	2d/
.	.	2B\	.	4g/
4F\	.	.	.	4a/
=27	=27	=27	=27	=27
4G\	1G	1G	0r	4b-i\
4F\	.	.	.	4a/
4E\	.	.	.	4g/
4D\	.	.	.	4f/
2E\	2G\	2c\	.	2g/
2E\	2G\	[2c\	.	2e/
=28.	=28.	=28.	=28.	=28.
1D	2A\	2c\]	1d	2.f/
.	2D\	2B\	.	.
.	.	.	.	4g/
1r	2A\	2.c\	2e\	4a/
.	.	.	.	4b-i\
.	[2F\	.	[2f\	[2a/
.	.	4B\	.	.
=29	=29	=29	=29	=29
1r	2F\]	4c\	4f\]	4a/]
.	.	4B\	4e\	4g/
.	2G\	4A/	4d\	1g
.	.	4G/	4c\	.
2r	1D	2A/	1d	.
2D\	.	2A/	.	2f#i/
=30.	=30.	=30.	=30.	=30.
2E\	1r	1G	2r	0g
2F\	.	.	2d\	.
1G	2r	1r	2d\	.
.	2B-i\	.	2e\	.
=31	=31	=31	=31	=31
2.F\	2A\	1r	4f\	0r
.	.	.	4e\	.
.	2A\	.	4d\	.
4E\	.	.	4c\	.
2D\	2F\	2r	4B\	.
.	.	.	4A/	.
[2C/	4G\	2G/	4c\	.
.	4F\	.	4B\	.
=32.	=32.	=32.	=32.	=32.
4C/]	4E\	2A/	4A/	0r
4BB/	4D\	.	4G/	.
4AA/	1D	2B\	1G	.
4GG/	.	.	.	.
2AA/	.	1c	.	.
2AA/	2C/	.	2F#i/	.
=33	=33	=33	=33	=33
1GG	2D\	2.B\	1G	0r
.	2D\	.	.	.
.	.	4A/	.	.
1r	2G\	2G/	2r	.
.	2A\	[2F/	2c\	.
=34.	=34.	=34.	=34.	=34.
0r	2B\	4F/]	2d\	0r
.	.	4E/	.	.
.	1c	4D/	2e\	.
.	.	4C/	.	.
.	.	2D/	1f	.
.	2B\	2D/	.	.
=35	=35	=35	=35	=35
0r	1c	1C	1e	2r
.	.	.	.	2g/
.	2r	1r	2d\	2a/
.	2G\	.	[2g\	2b\
=36.	=36.	=36.	=36.	=36.
0r	2A\	0r	4g\]	1cc
.	.	.	4f\	.
.	2A\	.	2f\	.
.	1G	.	2.g\	2.b\
.	.	.	4f\	4a/
=37	=37	=37	=37	=37
0r	2C/	0r	2e\	2g/
.	2D\	.	2d\	2f/
.	4C/	.	2e\	2g/
.	4D\	.	.	.
.	4E\	.	[2c\	[2e/
.	4F\	.	.	.
=38.	=38.	=38.	=38.	=38.
0r	2G\	0r	2c\]	2e/]
.	2A\	.	4B\	4d/
.	.	.	4A/	4c/
.	2G\	.	2B\	2d/
.	2G\	.	4c\	2d/
.	.	.	4B\	.
=39	=39	=39	=39	=39
1G	0C	0r	2c\	1c
.	.	.	2g\	.
2G\	.	.	2g\	2r
2G\	.	.	2g\	2g/
=40.	=40.	=40.	=40.	=40.
2G\	0r	0r	2.e\	2g/
2E\	.	.	.	2g/
.	.	.	4f\	.
2F\	.	.	1d	2a/
2G\	.	.	.	2b\
=41	=41	=41	=41	=41
2.A\	0r	1c	1c	1cc
4G\	.	.	.	.
4F\	.	2c\	1r	2.cc\
4E\	.	.	.	.
[2A\	.	2c\	.	.
.	.	.	.	4b\
=42.	=42.	=42.	=42.	=42.
2A\]	1r	2c\	1e	1a
4G\	.	2A/	.	.
4F\	.	.	.	.
1E	1G	2B\	2e\	1g
.	.	2c\	2e\	.
=43	=43	=43	=43	=43
[0D	2A\	2.d\	2f\	2r
.	2A\	.	2f\	2.dd\
.	.	4c\	.	.
.	2F\	4B\	2.f\	.
.	.	4A/	.	4cc\
.	4D\	[2d\	.	2b\
.	4E\	.	4e\	.
=44.	=44.	=44.	=44.	=44.
0D]	2F\	2d\]	1d	2a/
.	2G\	4c\	.	2.g/
.	.	4B\	.	.
.	1A	1A	1d	.
.	.	.	.	4f#i/
.	.	.	.	2f#i/
=45	=45	=45	=45	=45
2r	2B\	[0G	2r	2g/
2G\	4G\	.	2d\	2.b\
.	4A\	.	.	.
2G\	1B	.	2e\	.
.	.	.	.	4cc\
2G\	.	.	2d\	2dd\
=46.	=46.	=46.	=46.	=46.
2.E\	2c\	0G]	1g	2g/
.	2e\	.	.	1cc
4F\	.	.	.	.
2G\	1d	.	2.g\	.
2G\	.	.	.	2b\
.	.	.	4f\	.
=47	=47	=47	=47	=47
2.A\	0c	2r	1e	2.cc\
.	.	2c\	.	.
4G\	.	.	.	4b\
4F\	.	2c\	1r	4a/
4E\	.	.	.	4g/
[2F\	.	2c\	.	2a/
=48.	=48.	=48.	=48.	=48.
2F\]	1r	2.A/	2r	2a/
4E\	.	.	2e\	2a/
4D\	.	4B\	.	.
2E\	1G	2c\	2e\	4g/
.	.	.	.	4f/
2E\	.	2c\	2e\	4g/
.	.	.	.	4a/
=49	=49	=49	=49	=49
1D	2F\	2.d\	2f\	2b-i\
.	2F\	.	2f\	2.a/
.	.	4c\	.	.
1D	1D	4B\	2f\	.
.	.	4A/	.	4g/
.	.	[2B\	[2d\	4f/
.	.	.	.	4e/
=50.	=50.	=50.	=50.	=50.
0D	1d	2B\]	2d\]	2d/
.	.	4A/	4c\	2.g/
.	.	4G/	4B\	.
.	2d\	1A	2A/	.
.	.	.	.	4f#i/
.	2d\	.	2A/	2f#i/
=51	=51	=51	=51	=51
[0GGl	2.B\	[0Gl	1d	0g
.	4c\	.	.	.
.	2d\	.	2.B\	.
.	[2G\	.	.	.
.	.	.	4c\	.
=52.	=52.	=52.	=52.	=52.
0GG_	2G\]	0G_	2d\	[0gl
.	4F\	.	2.d\	.
.	4E\	.	.	.
.	[1Dl	.	.	.
.	.	.	4c\	.
.	.	.	4B\	.
.	.	.	4A/	.
=53	=53	=53	=53	=53
0GG]	0D]	0G]	0Bl	0g]
==	==	==	==	==
*-	*-	*-	*-	*-
!!!RDF**kern: l=long note in original notation
!!!RDF**kern: i=editorial accidental
!!!ENC:	Will Watson 13/11/2011
!!!END:	2011/11/13/
!!!EED:	Jesse Rodin
!!!EEV:	2011/12/06/
!!attribution-level@Jos: 5 (doubtful)
!!!ONB:	Translated from MusicXML and edited on 2011/12/06/ by Craig Sapp
!!muse2ps: C^La Rue/Josquin?\n@{SCT}^I150v95,95,95,95,95,130c95i2I150Q16
